public/ember-cli-visualeditor/styles/themes/apex/images/icons/quotesAdd-rtl.svg

<?xml version="1.0" encoding="utf-8"?>
<svg xmlns="http://www.w3.org/2000/svg" width="24" height="24" viewBox="0 0 24 24">
    <g id="g4">
        <path d="M20.5 8.6c.6.7 2.5 3.4 2.5 7.4v4h-6c-1.1 0-2-.9-2-2v-6h4s-.1-.9-.8-1.8c-.6-.7-1.3-1.2-2.1-1.5-.3-.1-.6-.3-.8-.6-.2-.3-.3-.7-.3-1.1v-1c1.3.2 1.9.2 3.3.8.8.5 1.6 1.1 2.2 1.8zm-15.5-3.6v-4h2v4h4v2h-4v4h-2v-4h-4v-2zm4 7s-.1-.9-.8-1.8l-.2-.2v-2h1.9l.6.6c.6.7 2.5 3.4 2.5 7.4v4h-6c-1.1 0-2-.9-2-2v-6h4z" id="path6"/>
    </g>
</svg>

<?xml version="1.0" encoding="utf-8"?>
<svg xmlns="http://www.w3.org/2000/svg" width="24" height="24" viewBox="0 0 24 24">
    <g id="g4">
        <path d="M20.5 8.6c.6.7 2.5 3.4 2.5 7.4v4h-6c-1.1 0-2-.9-2-2v-6h4s-.1-.9-.8-1.8c-.6-.7-1.3-1.2-2.1-1.5-.3-.1-.6-.3-.8-.6-.2-.3-.3-.7-.3-1.1V6c1.3.2 1.9.2 3.3.8.8.5 1.6 1.1 2.2 1.8zM5 5V1h2v4h4v2H7v4H5V7H1V5zm4 7s-.1-.9-.8-1.8L8 10V8h1.9l.6.6c.6.7 2.5 3.4 2.5 7.4v4H7c-1.1 0-2-.9-2-2v-6h4z" id="path6"/>
    </g>
</svg>
